X:0702
T:'King of the Pipers" (doublejig) 0702
C:after Mr. Cronin
B:O'Neill's Music Of Ireland (The 1850) Lyon & Healy, Chicago, 1903 edition
Z:FROM O'NEILL'S TO NOTEWORTHY, FROM NOTEWORTHY TO ABC, MIDI AND .TXT BY VINCE
BRENNAN June 2003 (HTTP://WWW.SOSYOURMOM.COM)
I:abc2nwc
M:6/8
L:1/8
K:D
{e}dDD {d}cDD|{c}BDD {B}ADD|{e}dDD {d}cBA|{B}AGF EFA|
{e}dDD {d}cDD|{c}BDD {B}ADD|(B/2c/2d)B {d}c.B.A|GEC EFG:|
"2"|:DFF DGG|DFF DEE|DFF DGG|{B}AGE {B}AGE|
D F2D G2|D F2D E2|B/2c/2dB {d}cBA|GEC EFG:|
"3"|:{e}dAF DFA|{c}BAF DFA|{e}dAF DFA|{B}AGF EFA|
{e}dAF DFA|{c}BAF DFA|(B/2c/2d)B/2 {d}c B A|GEC EFG:|
"^4"|:dfa {a}geg|fdf ecA|dfa {a}gec|{B}AGF EFA|
dfa {a}geg|fdf ecA|(B/2c/2d)B {d}cBA|GEC EFG:|
"5"|:(FG/2F/2D) (EF/2E/2D)|FG/2F/2D E/2F/2GE|FG/2F/2D EF/2E/2D|AG/2F/2E BGE|
FG/2F/2D EF/2E/2D|FG/2F/2D EFA|(B/2c/2d)B {d}cBA|GEC EFG:|
